assets/img/braze_icons/lock-unlocked-04.svg

<svg fill="none" height="24" viewBox="0 0 24 24" width="24" xmlns="http://www.w3.org/2000/svg"><path clip-rule="evenodd" d="m8 8c0-2.20914 1.79086-4 4-4 1.308 0 2.4693.62676 3.2008 1.60058.3317.44159.9586.53068 1.4001.19899.4416-.33169.5307-.95856.199-1.40015-1.0929-1.45508-2.8363-2.39942-4.7999-2.39942-3.31371 0-6 2.68629-6 6v1.70835c-1.24473 1.41025-2 3.26275-2 5.29165 0 4.4183 3.58172 8 8 8 4.4183 0 8-3.5817 8-8s-3.5817-8-8-8c-1.4571 0-2.82331.38958-4 1.07026zm5 6c0-.5523-.4477-1-1-1s-1 .4477-1 1v2c0 .5523.4477 1 1 1s1-.4477 1-1z" fill="#801ed7" fill-rule="evenodd"/></svg>

<svg width="24" height="24" viewBox="0 0 24 24" fill="none" xmlns="http://www.w3.org/2000/svg">
<path fill-rule="evenodd" clip-rule="evenodd" d="M8 8C8 5.79086 9.79086 4 12 4C13.308 4 14.4693 4.62676 15.2008 5.60058C15.5325 6.04217 16.1594 6.13126 16.6009 5.79957C17.0425 5.46788 17.1316 4.84101 16.7999 4.39942C15.707 2.94434 13.9636 2 12 2C8.68629 2 6 4.68629 6 8V9.70835C4.75527 11.1186 4 12.9711 4 15C4 19.4183 7.58172 23 12 23C16.4183 23 20 19.4183 20 15C20 10.5817 16.4183 7 12 7C10.5429 7 9.17669 7.38958 8 8.07026V8ZM13 14C13 13.4477 12.5523 13 12 13C11.4477 13 11 13.4477 11 14L11 16C11 16.5523 11.4477 17 12 17C12.5523 17 13 16.5523 13 16V14Z" fill="#801ED7"/>
</svg>
